images_breeze_svg/cmd/32/changepicture.svg

<svg viewBox="0 0 32 32" xmlns="http://www.w3.org/2000/svg"><path d="m4 4v24h14.109375a7.0005422 7.0005422 0 0 1 -2.109375-5 7.0005422 7.0005422 0 0 1 6.070312-6.929688l-1.070312-1.070312-6 6-2-2-8 8v-22h22v12.257812a7.0005422 7.0005422 0 0 1 1 .845704v-14.103516zm6 3a3 3 0 0 0 -3 3 3 3 0 0 0 3 3 3 3 0 0 0 3-3 3 3 0 0 0 -3-3zm18 20.890625a7.0005422 7.0005422 0 0 1 -.103516.109375h.103516z" fill="#4d4d4d"/><path d="m23 17a6 6 0 0 0 -6 6 6 6 0 0 0 .836 3.043l.732-.732a5 5 0 0 1 -.568-2.311 5 5 0 0 1 5-5 5 5 0 0 1 2.31.57l.733-.734a6 6 0 0 0 -3.043-.836zm5.164 2.957-.732.732a5 5 0 0 1 .568 2.311 5 5 0 0 1 -5 5 5 5 0 0 1 -2.31-.57l-.733.734a6 6 0 0 0 3.043.836 6 6 0 0 0 6-6 6 6 0 0 0 -.836-3.043z" fill="#1d99f3"/></svg>

<?xml version="1.0" encoding="UTF-8" standalone="no"?>
<svg
   xmlns:dc="http://purl.org/dc/elements/1.1/"
   xmlns:cc="http://creativecommons.org/ns#"
   xmlns:rdf="http://www.w3.org/1999/02/22-rdf-syntax-ns#"
   xmlns:svg="http://www.w3.org/2000/svg"
   xmlns="http://www.w3.org/2000/svg"
   xmlns:sodipodi="http://sodipodi.sourceforge.net/DTD/sodipodi-0.dtd"
   xmlns:inkscape="http://www.inkscape.org/namespaces/inkscape"
   viewBox="0 0 32 32"
   version="1.1"
   id="svg6"
   sodipodi:docname="changepicture.svg"
   inkscape:version="0.92.4 (unknown)"
   inkscape:export-filename="/home/rizmut/Dokumen/Rizmut/Github/tmp/breeze/cmd/32/changepicture.png"
   inkscape:export-xdpi="96"
   inkscape:export-ydpi="96">
  <metadata
     id="metadata12">
    <rdf:RDF>
      <cc:Work
         rdf:about="">
        <dc:format>image/svg+xml</dc:format>
        <dc:type
           rdf:resource="http://purl.org/dc/dcmitype/StillImage" />
        <dc:title></dc:title>
      </cc:Work>
    </rdf:RDF>
  </metadata>
  <defs
     id="defs10" />
  <sodipodi:namedview
     pagecolor="#ffffff"
     bordercolor="#666666"
     borderopacity="1"
     objecttolerance="10"
     gridtolerance="10"
     guidetolerance="10"
     inkscape:pageopacity="0"
     inkscape:pageshadow="2"
     inkscape:window-width="1360"
     inkscape:window-height="714"
     id="namedview8"
     showgrid="true"
     inkscape:zoom="10.429825"
     inkscape:cx="3.5780395"
     inkscape:cy="14.53057"
     inkscape:window-x="0"
     inkscape:window-y="28"
     inkscape:window-maximized="1"
     inkscape:current-layer="svg6">
    <inkscape:grid
       type="xygrid"
       id="grid828" />
  </sodipodi:namedview>
  <path
     style="fill:#4d4d4d"
     d="M 4 4 L 4 28 L 18.109375 28 A 7.0005422 7.0005422 0 0 1 16 23 A 7.0005422 7.0005422 0 0 1 22.070312 16.070312 L 21 15 L 15 21 L 13 19 L 5 27 L 5 5 L 27 5 L 27 17.257812 A 7.0005422 7.0005422 0 0 1 28 18.103516 L 28 4 L 4 4 z M 10 7 A 3 3 0 0 0 7 10 A 3 3 0 0 0 10 13 A 3 3 0 0 0 13 10 A 3 3 0 0 0 10 7 z M 28 27.890625 A 7.0005422 7.0005422 0 0 1 27.896484 28 L 28 28 L 28 27.890625 z "
     id="path2" />
  <path
     d="m 23,17 a 6,6 0 0 0 -6,6 6,6 0 0 0 0.836,3.043 l 0.732,-0.732 A 5,5 0 0 1 18,23 a 5,5 0 0 1 5,-5 5,5 0 0 1 2.31,0.57 l 0.733,-0.734 A 6,6 0 0 0 23,17 Z m 5.164,2.957 -0.732,0.732 A 5,5 0 0 1 28,23 5,5 0 0 1 23,28 5,5 0 0 1 20.69,27.43 l -0.733,0.734 A 6,6 0 0 0 23,29 6,6 0 0 0 29,23 6,6 0 0 0 28.164,19.957 Z"
     id="path4"
     inkscape:connector-curvature="0"
     style="fill:#1d99f3" />
</svg>
